X: 2
T: The Whistling Postman
R: reel
M: 4/4
L: 1/8
K: Dmaj
fd ~d2 edef|dBAF EAFE|DEED FAAB|defdgdag|fd ~d2 edef|dBAF EAFE|DEED FAdf| edBc d2 de:||fd~d2 dfaf|bfaf gfef|dfaf g2 fg|afdf efde|fd~d2 dfaf|bfaf gfef|dBAF ABdf|edBc d2 de|fd~d2 dfaf|bfaf gfef|dfaf g2 fg|afdf e2fg|a3^g afdf|gefd edBc|dBAF ABdf|edBc d2 de||


Tune 586	Setting 20676

